X:1
T:Title
%%score { ( 1 3 ) | ( 2 4 ) }
L:1/8
Q:1/4=100
M:4/4
K:Ab
V:1 treble nm="Grand Piano"
V:3 treble 
V:2 bass 
V:4 bass 
V:1
 [Ec]>[DB] [CA]>[DB] [Ec]2 [CA]>[=EA] | [FA]2 F2 E4 | d>c B>c d2 B>B | z4 [GB]4 | %4
w: Howard~E.~Smith * * * * * *||||
 c>B [CA]>[DB] [Ec]2 [CA]>[=EA] | [FA]2 F2 E4 | G>_G =G>d c2 B2 | [CA]6 z2 | B6 z2 | A2 B2 c2 A2 | %10
w: ||||||
 [=DAB] [DAB]2 [DAB] [DAc]2 [DAB]2 | [GB]6 z2 | [Ec]>[Ec] [Ec]>[Ec] [=Ec]2 [EB]2 | %13
w: |||
 [FA]2 [_GA]2 [FA]2 [DF]2 | %14
w: |
 [CE]2 [CA][DB] [Ec] [_Ge]2 [Fd][Q:1/4=98][Q:1/4=97][Q:1/4=95][Q:1/4=94][Q:1/4=92][Q:1/4=91][Q:1/4=89][Q:1/4=88][Q:1/4=86][Q:1/4=84][Q:1/4=83][Q:1/4=81][Q:1/4=80][Q:1/4=78][Q:1/4=77] | %15
w: |
 [Ec]2 [DB]2 [CA]4 |] %16
w: |
V:2
 [A,,A,]>[A,,A,] [A,,A,]>[A,,A,] [A,,A,]2 [A,,A,]>[C,A,] | [D,A,]2 [F,A,D]2 [A,C]4 | %2
 [E,B,E]>[E,A,E] [E,G,E]>[E,A,E] [E,B,E]2 [E,G,E]>[E,G,E] | [A,E]2 [F,=D]2 E2 z2 | %4
 [A,CE]>[A,CD] [A,,A,]>[A,,A,] [A,,A,]2 [A,,A,]>[C,A,] | [D,A,]2 [F,A,D]2 [A,C]4 | %6
 [E,B,D]>[E,=A,D] [E,B,D]>[E,G,F] [E,_A,E]2 [E,G,D]2 | [A,,A,]6 z2 | %8
 [E,G,D]>[E,G,] [E,G,]>[E,G,] [E,G,]>[E,B,D] [E,A,D]>[E,G,D] | [A,C]2 [E,G,D]2 [A,E]2 [A,CE]2 | %10
 F, F,2 F, B,,2 B,,2 | z2 D2 C2 B,2 | [A,,A,]>[A,,A,] [A,,A,]>[A,,A,] [C,G,]2 [C,C]2 | %13
 [F,C]2 [E,C]2 [D,D]2 [D,A,]2 | [A,,A,]2 [A,,A,][A,,A,] [A,,A,] [D,A,]2 [D,A,] | %15
 [E,A,]2 [E,G,]2 [A,,A,]4 |] %16
V:3
 x8 | x8 | x8 | c2 [AB]2 z2 D2 | x8 | x8 | x8 | x8 | z z/ D/ D>D D>G F>E | x8 | x8 | E2 z2 z4 | %12
 x8 | x8 | x8 | x8 |] %16
V:4
 x8 | x8 | x8 | z4 E,4 | x8 | x8 | x8 | x8 | x8 | x8 | x8 | E,6 z2 | x8 | x8 | x8 | x8 |] %16

